src/telerik-icons/solid/qr-code.svg

<?xml version="1.0" encoding="utf-8"?>
<svg xmlns="http://www.w3.org/2000/svg" width="512" height="512" viewBox="0 0 512 512">
  <path d="M320 0v192h192V0H320zm160 160H352V32h128v128zm-32-32h-64V64h64v64zM0 0v192h192V0H0zm160 160H32V32h128v128zm-32-32H64V64h64v64zM0 320v192h192V320H0zm160 160H32V352h128v128zm-32-32H64v-64h64v64zm32-224h32v32h-32v-32zm0 64h-32v-32h32v32zm-64-64h32v32H96v-32zm-32 32H32v-32h32v32zm32 32H64v-32h32v32zm128 0h-32v-32h32v32zm32-32h-32v-32h32v32zm0-64h32v32h-32v-32zm0 0h-32v-32h32v32zm0-64h32v32h-32v-32zm0 0h-32V96h32v32zm0-64h32v32h-32V64zm0 0h-32V32h32v32zm64 192h-32v-32h32v32zm-96 32h32v32h-32v-32zm64 0h-32v-32h32v32zm0 64h-32v-32h32v32zm-32 32h-32v-32h32v32zm0 0h32v32h-32v-32zm0 64h-32v-32h32v32zm64-64h-32v-32h32v32zm0-64h-32v-32h32v32zm0-64h32v32h-32v-32zm64 0h-32v-32h32v32zm32 32h-32v-32h32v32zm32-32h-32v-32h32v32zm-96 32h32v32h-32v-32zm0 64h-32v-32h32v32zm0 0h32v32h-32v-32zm32-32h32v32h-32v-32zm32-32h32v32h-32v-32zm-96 96h32v32h-32v-32zm0 64h-32v-32h32v32zm-32 32h-32v-32h32v32zm192-192h-32v-32h32v32zM352 416h32v32h-32v-32zm0 64h-32v-32h32v32zm64-64h-32v-32h32v32zm32-96h32v32h-32v-32zm0 64h-32v-32h32v32zm-32 32h32v32h-32v-32zm0 64h-32v-32h32v32zm64-64h-32v-32h32v32zm0 64h-32v-32h32v32zm32-32h-32v-32h32v32zm0-64h-32v-32h32v32zm0-64h-32v-32h32v32zm0-64h-32v-32h32v32zM256 512h-32v-32h32v32zm64 0h-32v-32h32v32zm32-32h32v32h-32v-32zm64 0h32v32h-32v-32zm96 32h-32v-32h32v32z"/>
</svg>

<?xml version="1.0" encoding="utf-8"?>
<!-- Generator: Adobe Illustrator 24.2.0, SVG Export Plug-In . SVG Version: 6.00 Build 0)  -->
<svg xmlns="http://www.w3.org/2000/svg" width="512" height="512" viewBox="0 0 512 512">
<path d="M320,0v192h192V0H320z M480,160H352V32h128V160z M448,128h-64V64h64V128z M0,0v192h192V0H0z M160,160H32V32h128V160z
	 M128,128H64V64h64V128z M0,320v192h192V320H0z M160,480H32V352h128V480z M128,448H64v-64h64V448z M160,224h32v32h-32V224z M160,288
	h-32v-32h32V288z M96,224h32v32H96V224z M64,256H32v-32h32V256z M96,288H64v-32h32V288z M224,288h-32v-32h32V288z M256,256h-32v-32
	h32V256z M256,192h32v32h-32V192z M256,192h-32v-32h32V192z M256,128h32v32h-32V128z M256,128h-32V96h32V128z M256,64h32v32h-32V64z
	 M256,64h-32V32h32V64z M320,256h-32v-32h32V256z M224,288h32v32h-32V288z M288,288h-32v-32h32V288z M288,352h-32v-32h32V352z
	 M256,384h-32v-32h32V384z M256,384h32v32h-32V384z M256,448h-32v-32h32V448z M320,384h-32v-32h32V384z M320,320h-32v-32h32V320z
	 M320,256h32v32h-32V256z M384,256h-32v-32h32V256z M416,288h-32v-32h32V288z M448,256h-32v-32h32V256z M352,288h32v32h-32V288z
	 M352,352h-32v-32h32V352z M352,352h32v32h-32V352z M384,320h32v32h-32V320z M416,288h32v32h-32V288z M320,384h32v32h-32V384z
	 M320,448h-32v-32h32V448z M288,480h-32v-32h32V480z M480,288h-32v-32h32V288z M352,416h32v32h-32V416z M352,480h-32v-32h32V480z
	 M416,416h-32v-32h32V416z M448,320h32v32h-32V320z M448,384h-32v-32h32V384z M416,416h32v32h-32V416z M416,480h-32v-32h32V480z
	 M480,416h-32v-32h32V416z M480,480h-32v-32h32V480z M512,448h-32v-32h32V448z M512,384h-32v-32h32V384z M512,320h-32v-32h32V320z
	 M512,256h-32v-32h32V256z M256,512h-32v-32h32V512z M320,512h-32v-32h32V512z M352,480h32v32h-32V480z M416,480h32v32h-32V480z
	 M512,512h-32v-32h32V512z" />
</svg>
